X: 14222
T: Fúnicúlí, Fúnicúla
R: jig
M: 6/8
K: Adorian
.d|:(g6|g2) .g f2 .f|d2 .d e2 .e|B3 (B3|B2) .B A2 .G|(G6|G2) .B A2 .G|(G6|1 G3) z z d:|2 G3) z z B||
(B6|B2) .B ^c2 .c|.B2 .B ^c2 .c|B3 (F3|F2) .F F2 .F|(F6|F3) z2 .d|
(d6|d3) .d .e.f.e|d2 .d .e.f.e|d3 (A3|A2) .A .A2 .A|(A6|A3) z2 z|
|:f3 .e z2|f3 .e z2|g2 .f e2 .g|f6|f3 .e zz|g2 f e2 g2|d2 .B B2 .B|
B2 .B B2 .B|B2 .B B2 .B|B2 .B B2 .B|(g6|g2) a .g2 e|d2 .B B2 .c|d2 .c B2 .A|G6||

